X:1
T:Title
%%score { ( 1 3 ) | ( 2 4 ) }
L:1/8
Q:1/4=104
M:4/4
K:G
V:1 treble nm="Grand Piano"
V:3 treble 
V:2 bass 
V:4 bass 
V:1
 [B,D]2 [CE]2 [B,D]>[A,C] [G,B,]>[B,D] | [DB]2 [Ec]2 [DB]>[CA] [B,G]>[DB] | %2
w: C.~Harold~Lowden * * * * *||
 A2 A2 A>[DF] [DG]>[DA] | [DB]2 [DB]2 [DA]4 | [B,D]2 [CE]2 [B,D]>[A,C] [G,B,]>[B,D] | %5
w: |||
 [DB]2 [Ec]2 [DB]>[CA] [B,G]>[DB] | d2 d2 d2 d>c |[M:3/4] B2 [FA]2 G2 |[M:1/4] B>c |[M:4/4] d6 z2 | %10
w: |||||
 [DAc]2 [DAc]2 [DAc]>[DGB] A>B | c6 z2 | B2 B2 B>A G>A | B2 G2 E2 D2 | [DG]2 A2 B2 c2 | %15
w: |||||
 d2 d2 d2 d>c | B2 [FA]2 G4 |] %17
w: ||
V:2
 [G,,G,]2 [G,,G,]2 [G,,G,]>[G,,D,] [G,,D,]>[G,,G,] | %1
 [G,,G,]2 [G,,G,]2 [G,,G,]>[G,,G,] [G,,G,]>[G,,G,] | %2
 [D,F,D]2 [D,F,D]2 [D,F,D]>[C,A,] [B,,G,]>[A,,F,] | [G,,G,]2 [B,,G,]2 [D,F,]4 | %4
 [G,,G,]2 [G,,G,]2 [G,,G,]>[G,,D,] [G,,D,]>[G,,G,] | %5
 [G,,G,]2 [G,,G,]2 [G,,G,]>[G,,G,] [G,,G,]>[G,,G,] | [G,B,D]2 [A,CF]2 [B,DG]2 [CEA]>[CEA] | %7
[M:3/4] [DG]2[K:bass] [D,C]2 [G,B,]2 |[M:1/4][K:treble] G>A |[M:4/4] B6[K:bass] z2 | %10
 D,2 D,2 D,>D,[K:treble] F>G | A2[K:bass] D,>D, D,2 [D,D]>[D,D] | %12
 [G,DG]2 [G,DG]2 [G,DG]>[G,CD] [G,B,D]>[G,CD] | [G,DG]2[K:bass] [G,B,D]2 [G,C]2 [G,B,]2 | %14
 [B,,G,]2 [D,F,D]2[K:treble] [G,D]2 [G,A,D]2 | [G,B,D]2 [A,CF]2 [B,DG]2 [CEA]>[CEA] | %16
 [DG]2[K:bass] [D,C]2 [G,B,]4 |] %17
V:3
 x8 | x8 | x8 | x8 | x8 | x8 | x8 |[M:3/4] x6 |[M:1/4] x2 |[M:4/4] z2 D>D D2 [DBd]>[DGB] | x8 | %11
 z2 [FA]>[EG] [DF]2 [Ac]>[FA] | x8 | x8 | x8 | x8 | x8 |] %17
V:4
 x8 | x8 | x8 | x8 | x8 | x8 | x8 |[M:3/4] x2[K:bass] x4 |[M:1/4][K:treble] x2 | %9
[M:4/4] z2 G,>G,[K:bass] G,2 G,>G, | x6[K:treble] x2 | x2[K:bass] x6 | x8 | x2[K:bass] x6 | %14
 x4[K:treble] x4 | x8 | x2[K:bass] x6 |] %17

